src/pos-icons/robot-vacuum-variant.svg

<svg height="24" viewBox="0 0 24 24" width="24" xmlns="http://www.w3.org/2000/svg"><path d="m5 3a2 2 0 0 0 -2 2v2h2v-2h14v2h2v-2a2 2 0 0 0 -2-2zm3 4v2h8v-2zm-5 2v3a9 9 0 0 0 9 9 9 9 0 0 0 9-9v-3h-2v3a7 7 0 0 1 -7 7 7 7 0 0 1 -7-7v-3zm9 3a2.5 2.5 0 0 0 -2.5 2.5 2.5 2.5 0 0 0 2.5 2.5 2.5 2.5 0 0 0 2.5-2.5 2.5 2.5 0 0 0 -2.5-2.5z"/></svg>

<?xml version="1.0" encoding="UTF-8"?><!DOCTYPE svg PUBLIC "-//W3C//DTD SVG 1.1//EN" "http://www.w3.org/Graphics/SVG/1.1/DTD/svg11.dtd"><svg xmlns="http://www.w3.org/2000/svg" xmlns:xlink="http://www.w3.org/1999/xlink" version="1.1" id="mdi-robot-vacuum-variant" width="24" height="24" viewBox="0 0 24 24"><path d="M5,3A2,2 0 0,0 3,5V7H5V5H19V7H21V5A2,2 0 0,0 19,3H5M8,7V9H16V7H8M3,9V12A9,9 0 0,0 12,21A9,9 0 0,0 21,12V9H19V12A7,7 0 0,1 12,19A7,7 0 0,1 5,12V9H3M12,12A2.5,2.5 0 0,0 9.5,14.5A2.5,2.5 0 0,0 12,17A2.5,2.5 0 0,0 14.5,14.5A2.5,2.5 0 0,0 12,12Z" /></svg>
